IMB-X-Files/The-Ambassadors-Assets/66101551bb608d87993c071f_﹟31.svg

<svg fill="none" height="106" viewBox="0 0 106 106" width="106" xmlns="http://www.w3.org/2000/svg"><path d="m45.5736 65.7436h-14.6831l-7.3481 12.7201 7.3481 12.72h14.6831m14.8135-25.4401-7.348 12.7201 7.348 12.72m-7.348-12.7853h-29.4967m14.67-25.3749-7.335-12.7201h-14.6961l-7.34805 12.7201 7.34805 12.7201m29.4445.0913h-14.6962l-7.348 12.7201m7.4002-12.7462-14.7483-25.5315m29.327.0131 7.3481-12.7201-7.3481-12.7201h-14.6961l-7.3481 12.7201m14.6439 25.5315-7.348-12.7201h-14.6961m14.7483.0391 14.7483-25.5315m14.657 25.388h14.6961l7.348-12.7201-7.348-12.72h-14.6961m-14.8006 25.4401 7.3481-12.7201-7.3481-12.72m7.335 12.7853h29.4967m-14.67 25.3749 7.348 12.7201h14.6962l7.335-12.7201-7.335-12.7201m-29.4445-.0913h14.6961l7.335-12.7201m-7.4002 12.7462 14.7483 25.5315m-29.327-.0131-7.348 12.7201 7.348 12.7201h14.6961l7.3481-12.7201m-14.6439-25.5315 7.348 12.7201h14.6962m-14.7484-.0391-14.7483 25.5314m-14.5917-25.3879-7.3481 12.7201 7.3481 12.72h14.6831l7.348-12.72-7.348-12.7201zm-7.3872-12.681h-14.6961l-7.3481 12.7201 7.3481 12.7201h14.6961l7.335-12.7201zm7.2828-12.7331-7.3481-12.7201h-14.6961l-7.348 12.7201 7.348 12.7201h14.6961zm14.6831-.0522 7.348-12.7201-7.348-12.72h-14.6962l-7.348 12.72 7.348 12.7201zm7.3872 12.681h14.6961l7.335-12.7201-7.335-12.7201h-14.6961l-7.3481 12.7201zm-7.2959 12.7331 7.3481 12.7201h14.6961l7.3481-12.7201-7.3481-12.7201h-14.6961z" stroke="#fce48f" stroke-linecap="round" stroke-linejoin="round"/></svg>

<svg width="106" height="106" viewBox="0 0 106 106" fill="none" xmlns="http://www.w3.org/2000/svg">
    <path
        d="M45.5736 65.7436H30.8905L23.5424 78.4637L30.8905 91.1837H45.5736M60.3871 65.7436L53.0391 78.4637L60.3871 91.1837M53.0391 78.3984H23.5424M38.2124 53.0235L30.8774 40.3034H16.1813L8.83325 53.0235L16.1813 65.7436M45.6258 65.8349H30.9296L23.5816 78.555M30.9818 65.8088L16.2335 40.2773M45.5605 40.2904L52.9086 27.5703L45.5605 14.8502H30.8644L23.5163 27.5703M38.1602 53.1018L30.8122 40.3817H16.1161M30.8644 40.4208L45.6127 14.8893M60.2697 40.2773H74.9658L82.3138 27.5572L74.9658 14.8372H60.2697M45.4691 40.2773L52.8172 27.5572L45.4691 14.8372M52.8041 27.6225H82.3008M67.6308 52.9974L74.9788 65.7175H89.675L97.01 52.9974L89.675 40.2773M60.2305 40.186H74.9266L82.2616 27.4659M74.8614 40.2121L89.6097 65.7436M60.2827 65.7305L52.9347 78.4506L60.2827 91.1707H74.9788L82.3269 78.4506M67.683 52.9191L75.031 65.6392H89.7272M74.9788 65.6001L60.2305 91.1315M45.6388 65.7436L38.2907 78.4637L45.6388 91.1837H60.3219L67.6699 78.4637L60.3219 65.7436H45.6388ZM38.2516 53.0626H23.5555L16.2074 65.7827L23.5555 78.5028H38.2516L45.5866 65.7827L38.2516 53.0626ZM45.5344 40.3295L38.1863 27.6094H23.4902L16.1422 40.3295L23.4902 53.0496H38.1863L45.5344 40.3295ZM60.2175 40.2773L67.5655 27.5572L60.2175 14.8372H45.5213L38.1733 27.5572L45.5213 40.2773H60.2175ZM67.6047 52.9583H82.3008L89.6358 40.2382L82.3008 27.5181H67.6047L60.2566 40.2382L67.6047 52.9583ZM60.3088 65.6914L67.6569 78.4115H82.353L89.7011 65.6914L82.353 52.9713H67.6569L60.3088 65.6914Z"
        stroke="#FCE48F" stroke-linecap="round" stroke-linejoin="round" />
</svg>
